icons/svg/osmc_green/osmc_green_hiker.svg

<svg width="18" height="18" fill="none" version="1.1" viewBox="0 0 18 18" xmlns="http://www.w3.org/2000/svg">
 <g fill="#00ac26">
  <path d="m7.85 4.15c0-0.63513 0.51487-1.15 1.15-1.15 0.63512 0 1.15 0.51487 1.15 1.15s-0.51488 1.15-1.15 1.15c-0.63513 0-1.15-0.51487-1.15-1.15z"/>
  <path d="m6.0805 15h1.0154l0.70454-3.9924 1.053 1.0531c0.09376 0.0937 0.14644 0.2209 0.14644 0.3535v2.5858h1v-2.5858c0-0.3978-0.15803-0.7793-0.43934-1.0606l-0.52953-0.5296 0.30054-2.4113c0.47045 0.39582 1.0578 0.5873 1.6683 0.5873v6h1v-7.5c0-0.27614-0.2238-0.5-0.5-0.5-0.2761 0-0.5 0.22386-0.5 0.5v0.5c-0.6628 0-1.2672-0.38268-1.4815-1.0257-0.15554-0.46662-0.31098-0.88187-0.87443-0.9639-0.53859-0.07841-1.041 0.28831-1.1305 0.82517 0 0-0.95304 5.4441-1.4331 8.1644z"/>
  <path d="M4.72737 8.5165L4.54289 9.48063C4.51485 9.62714 4.55873 9.77861 4.65981 9.88426C4.73999 9.96807 4.84873 10.0151 4.96212 10.0151H6.00928C6.29496 10.0151 6.53715 9.79559 6.57755 9.5L7.07041 6.59397C7.11325 6.28048 6.88052 6 6.57755 6H6.45171C6.1883 6 5.95869 6.18738 5.89481 6.45448L5.49739 7.9312C5.45748 8.09807 5.24362 8.21515 5.07905 8.21515C4.90809 8.21515 4.7609 8.34128 4.72737 8.5165Z"/>
 </g>
</svg>

<svg width="18" height="18" viewBox="0 0 18 18" fill="none" xmlns="http://www.w3.org/2000/svg">
<path d="M7.85 4.15C7.85 3.51487 8.36487 3 9 3C9.63512 3 10.15 3.51487 10.15 4.15C10.15 4.78513 9.63512 5.3 9 5.3C8.36487 5.3 7.85 4.78513 7.85 4.15Z" fill="#00ac26"/>
<path d="M6.08052 15H7.09597L7.80051 11.0076L8.85355 12.0607C8.94731 12.1544 8.99999 12.2816 8.99999 12.4142V15H9.99999V12.4142C9.99999 12.0164 9.84196 11.6349 9.56065 11.3536L9.03112 10.824L9.33166 8.4127C9.80211 8.80852 10.3895 9 11 9L11 15H12L12 7.5C12 7.22386 11.7762 7 11.5 7C11.2239 7 11 7.22386 11 7.5L11 8C10.3372 8 9.73282 7.61732 9.5185 6.97433C9.36296 6.50771 9.20752 6.09246 8.64407 6.01043C8.10548 5.93202 7.60309 6.29874 7.51361 6.8356C7.51361 6.8356 6.56057 12.2797 6.08052 15Z" fill="#00ac26"/>
<path d="M4.72737 8.5165L4.54289 9.48063C4.51485 9.62714 4.55873 9.77861 4.65981 9.88426C4.73999 9.96807 4.84873 10.0151 4.96212 10.0151H6.00928C6.29496 10.0151 6.53715 9.79559 6.57755 9.5L7.07041 6.59397C7.11325 6.28048 6.88052 6 6.57755 6H6.45171C6.1883 6 5.95869 6.18738 5.89481 6.45448L5.49739 7.9312C5.45748 8.09807 5.24362 8.21515 5.07905 8.21515C4.90809 8.21515 4.7609 8.34128 4.72737 8.5165Z" fill="#00ac26"/>
</svg>
